build/img/icon/phone.svg

<svg width="40" height="40" viewBox="0 0 40 40" fill="none" xmlns="http://www.w3.org/2000/svg">
<circle cx="20" cy="20" r="19.5" stroke="#BEC2C3"/>
<path d="M16.3414 18.6999C16.3719 18.3032 16.7179 18.0042 16.8831 17.883C16.9278 17.8502 16.9327 17.7865 16.8936 17.7471C16.44 17.2902 14.102 14.9347 13.6505 14.481C13.6109 14.4413 13.5445 14.4466 13.5126 14.4927C13.4451 14.5904 13.3825 14.692 13.325 14.7987C12.8367 15.7057 13.0435 17.0912 13.0435 17.0912C13.5261 20.3086 16.7436 23.2848 16.7436 23.2848C16.7436 23.2848 19.7197 26.5022 22.9372 26.9848C22.9372 26.9848 24.3226 27.1917 25.2296 26.7033C25.3363 26.6458 25.4379 26.5832 25.5356 26.5157C25.5817 26.4838 25.5871 26.4174 25.5473 26.3779C25.0936 25.9263 22.7382 23.5883 22.2812 23.1347C22.2418 23.0956 22.1781 23.1005 22.1453 23.1453C22.0241 23.3105 21.7251 23.6564 21.3284 23.6869C20.6022 23.7428 19.4055 23.1314 18.1512 21.8771C17.0771 20.803 16.2855 19.4261 16.3414 18.6999Z" fill="#8D9293"/>
<path d="M13.8995 14.0483L17.3212 17.47C17.3567 17.5055 17.4139 17.5058 17.4495 17.4704C17.6331 17.2878 18.1465 16.7754 18.1465 16.7754C18.482 16.44 18.5223 15.9362 18.1868 15.6007L15.8358 13.2497C15.5289 12.9429 15.0414 12.9163 14.6998 13.1839C14.3927 13.4244 14.1236 13.6623 13.8946 13.923C13.8629 13.9592 13.8655 14.0143 13.8995 14.0483Z" fill="#8D9293"/>
<path d="M26.1053 26.1337C26.366 25.9047 26.6039 25.6356 26.8444 25.3285C27.112 24.9869 27.0854 24.4994 26.7785 24.1925L24.4276 21.8415C24.0921 21.506 23.5883 21.5463 23.2528 21.8818C23.2528 21.8818 22.7405 22.3952 22.5578 22.5788C22.5224 22.6144 22.5228 22.6716 22.5583 22.7071L25.98 26.1288C26.014 26.1628 26.0691 26.1654 26.1053 26.1337Z" fill="#8D9293"/>
</svg>

<svg width="40" height="40" fill="none" xmlns="http://www.w3.org/2000/svg"><circle cx="20" cy="20" r="19.5" stroke="#BEC2C3"/><path d="M16.341 18.7c.03-.397.377-.696.542-.817a.09.09 0 00.01-.136l-3.243-3.266a.09.09 0 00-.137.012c-.068.097-.13.199-.188.306-.488.907-.281 2.292-.281 2.292.482 3.218 3.7 6.194 3.7 6.194s2.976 3.217 6.193 3.7c0 0 1.386.207 2.293-.282.106-.057.208-.12.306-.187a.09.09 0 00.011-.138c-.453-.452-2.809-2.79-3.266-3.243a.09.09 0 00-.136.01c-.12.166-.42.511-.817.542-.726.056-1.922-.556-3.177-1.81-1.074-1.074-1.866-2.45-1.81-3.177zM13.9 14.048l3.421 3.422a.09.09 0 00.128 0c.184-.182.697-.695.697-.695.336-.335.376-.839.04-1.174l-2.35-2.351a.858.858 0 00-1.136-.066 5.89 5.89 0 00-.805.739.092.092 0 00.005.125zm12.205 12.086a5.89 5.89 0 00.74-.806.858.858 0 00-.066-1.136l-2.351-2.35c-.336-.336-.84-.296-1.175.04l-.695.697a.09.09 0 000 .128l3.422 3.422c.034.034.09.036.125.005z" fill="#8D9293"/></svg>
